assets/svg/1F553.svg

<svg xmlns="http://www.w3.org/2000/svg" viewBox="0 0 64 64" enable-background="new 0 0 64 64"><circle fill="#e0e7ec" cx="32.09" cy="32.1" r="29.733"/><path fill="#d1d7da" d="m52.45 47.31c-16.421 0-29.732-13.311-29.732-29.732 0-5.461 1.499-10.559 4.067-14.957-13.823 2.555-24.3 14.65-24.3 29.21 0 16.421 13.311 29.732 29.732 29.732 10.962 0 20.511-5.948 25.667-14.773-1.764.326-3.573.517-5.434.517"/><path fill="#98a9b4" d="m0 32.1c0 17.697 14.397 32.1 32.09 32.1 17.699 0 32.1-14.399 32.1-32.1s-14.4-32.1-32.1-32.1c-17.696 0-32.09 14.399-32.09 32.1m6.249 0c0-14.251 11.595-25.846 25.844-25.846 14.253 0 25.851 11.595 25.851 25.846 0 14.255-11.598 25.849-25.851 25.849-14.249-.0001-25.844-11.594-25.844-25.849"/><path fill="#85939c" d="m33.979 11.07c0-1.444-.852-2.613-1.896-2.613l0 0c-1.046 0-1.896 1.169-1.896 2.613v21.15c0 1.444.85 2.612 1.896 2.612l0 0c1.044 0 1.896-1.168 1.896-2.612v-21.15"/><path fill="#788288" d="m43.532 44.08c1.144.877 2.589.917 3.227.088l0 0c.637-.83.228-2.217-.915-3.097l-12.13-9.332c-1.142-.879-2.589-.917-3.225-.088l0 0c-.637.83-.23 2.216.911 3.097l12.13 9.332"/></svg>

<?xml version="1.0" encoding="UTF-8" standalone="no"?>
<!-- Generator: Adobe Illustrator 16.0.0, SVG Export Plug-In . SVG Version: 6.00 Build 0)  -->

<svg
   xmlns:dc="http://purl.org/dc/elements/1.1/"
   xmlns:cc="http://creativecommons.org/ns#"
   xmlns:rdf="http://www.w3.org/1999/02/22-rdf-syntax-ns#"
   xmlns:svg="http://www.w3.org/2000/svg"
   xmlns="http://www.w3.org/2000/svg"
   xmlns:sodipodi="http://sodipodi.sourceforge.net/DTD/sodipodi-0.dtd"
   xmlns:inkscape="http://www.inkscape.org/namespaces/inkscape"
   version="1.1"
   id="Layer_1"
   x="0px"
   y="0px"
   width="64px"
   height="64px"
   viewBox="0 0 64 64"
   enable-background="new 0 0 64 64"
   xml:space="preserve"
   inkscape:version="0.48.5 r10040"
   sodipodi:docname="1F553.svg"
   inkscape:export-filename="D:\TESTINGEMOJI\SVGTEST\1F553.png"
   inkscape:export-xdpi="90"
   inkscape:export-ydpi="90"><metadata
   id="metadata3970"><rdf:RDF><cc:Work
       rdf:about=""><dc:format>image/svg+xml</dc:format><dc:type
         rdf:resource="http://purl.org/dc/dcmitype/StillImage" /><dc:title></dc:title></cc:Work></rdf:RDF></metadata><defs
   id="defs3968" /><sodipodi:namedview
   pagecolor="#ffffff"
   bordercolor="#666666"
   borderopacity="1"
   objecttolerance="10"
   gridtolerance="10"
   guidetolerance="10"
   inkscape:pageopacity="0"
   inkscape:pageshadow="2"
   inkscape:window-width="640"
   inkscape:window-height="480"
   id="namedview3966"
   showgrid="false"
   inkscape:zoom="3.6875"
   inkscape:cx="32"
   inkscape:cy="32"
   inkscape:window-x="484"
   inkscape:window-y="337"
   inkscape:window-maximized="0"
   inkscape:current-layer="Layer_1" />
<g
   id="g3954">
	<circle
   fill="#E0E7EC"
   cx="32.092"
   cy="32.097"
   r="29.733"
   id="circle3956" />
	<path
   fill="#D1D7DA"
   d="M52.451,47.313c-16.421,0-29.732-13.311-29.732-29.732c0-5.461,1.499-10.559,4.067-14.957   c-13.823,2.555-24.3,14.65-24.3,29.213c0,16.421,13.311,29.732,29.732,29.732c10.962,0,20.511-5.948,25.667-14.773   C56.121,47.122,54.312,47.313,52.451,47.313z"
   id="path3958" />
	<path
   fill="#98A9B4"
   d="M0,32.097c0,17.697,14.397,32.097,32.093,32.097c17.699,0,32.099-14.399,32.099-32.097S49.792,0,32.093,0   C14.397,0,0,14.399,0,32.097z M6.249,32.097c0-14.251,11.595-25.846,25.844-25.846c14.253,0,25.851,11.595,25.851,25.846   c0,14.255-11.598,25.849-25.851,25.849C17.844,57.945,6.249,46.352,6.249,32.097z"
   id="path3960" />
	<path
   fill="#85939C"
   d="M33.979,11.074c0-1.444-0.852-2.613-1.896-2.613l0,0c-1.046,0-1.896,1.169-1.896,2.613V32.22   c0,1.444,0.85,2.612,1.896,2.612l0,0c1.044,0,1.896-1.168,1.896-2.612V11.074z"
   id="path3962" />
	<path
   fill="#788288"
   d="M43.532,44.08c1.144,0.877,2.589,0.917,3.227,0.088l0,0c0.637-0.83,0.228-2.217-0.915-3.097l-12.13-9.332   c-1.142-0.879-2.589-0.917-3.225-0.088l0,0c-0.637,0.83-0.23,2.216,0.911,3.097L43.532,44.08z"
   id="path3964" />
</g>
</svg>
